X:1
T:Manisa, 11.811.8 D
T:Manisa, 11.811.8 D
T:Silas L. Cox, 1912
T:Public Domain Courtesy of the Cyber Hymnal™
C:Silas L. Cox, 1912
Z:Public Domain
Z:Courtesy of the Cyber Hymnal™
%%score ( 1 2 ) ( 3 4 )
L:1/8
Q:1/4=87
M:6/8
K:Db
V:1 treble 
V:2 treble 
V:3 bass 
V:4 bass 
V:1
 [DF] | [FA][=E=G][FA] [Fd][Ac][_GB] | [FA][=E=G][_GB] [FA]2 [DF] | [CE][DF][E=G] [DB][CA][DG] | %4
 [CA]3- [CA]2 [DF] | [FA]>[E=G][FA] [Ad]>[_Gc][Fd] | [Af]>[Ae][Ad] !fermata![GB]2 [GB] | %7
 [FA]>[FA][Fd] [Ec][Fd][Ge] | [Fd]3- [Fd]2 (d/c/) | %9
 [GB][F=A][GB] [Bd][_Ac][GB] ([FA][DF])[GB][FA]<[FA]A | [GB][GB][AB] (Be)[_Gd] | %11
 [Ac]3- [Ac]2 ([DF]/[EG]/) | [FA][=E=G][FA] [Ad][Gc][Fd] | (fe)[Ad] [GB]<!fermata![GB][=EB] | %14
"^Poco. Rit." [FA][FA][Fd] ([Ec][Fd])[Ge] | [Fd]3- [Fd]2 |] %16
V:2
 x | x6 | x6 | x6 | x6 | x6 | x6 | x6 | x5 [Ad] | x11 A | x3 =G2 x | x6 | x6 | A2 x4 | x6 | x5 |] %16
V:3
 [D,A,] | [D,D][D,D][D,D] [D,A,][D,A,][D,D] | [D,D][D,D][D,D] [D,D]2 [D,A,] | %3
 [E,A,][E,=G,]E, [E,G,][E,A,][E,B,] | [A,,A,]3- [A,,A,]2 [D,A,] | %5
 [D,D]>[D,D][D,D] [F,A,]>[E,A,][D,A,] | [D,D]>[E,C][F,D] !fermata![G,D]2 [G,D] | %7
 [A,D]>[A,D][A,D] [A,,A,][A,,A,][A,,A,] | [D,A,]3- [D,A,]2 [F,D] | %9
 [G,D][G,D][G,D] [G,D][G,D][G,D] (DA,)[D,D][D,D]<[D,D][F,D] | [G,D][G,D][F,=D] (ED)[E,G] | %11
 [A,E]3- [A,E]2 [D,A,] | [D,D][D,D][D,D] [F,A,][E,A,][D,A,] | %13
 ([D,D][E,C])[F,D] [G,D]<!fermata![G,D][=G,D] | [A,D][A,D][A,D] [A,,B,]2 [A,,A,] | %15
 [D,A,]3- [D,A,]2 |] %16
V:4
 x | x6 | x6 | x2 E, x3 | x6 | x6 | x6 | x6 | x6 | x6 D,2 x4 | x3 E,2 x | x6 | x6 | x6 | x6 | x5 |] %16

